X: 9045
T: Fall River Jig (with piano acc.)
C: BB
M: 6/8
Q: 1/8=320
L: 1/8
R: jig
V: 1 program 1 73 %flute
V: 2 volume=70 clef=bass m=D program 1 00
K: G
[V:1] D|"G"GDG "C"EFG | "Am"AcB ABc | "G"d2B "Am"cBA | "G"GAG "D"FED |
[V:2] z|G,,2[GDB]C,2[CGE]|A,,2[AEC]E,2[AEC]|G,,2[GDB]A,,2[AEC]|G,,2[GDB]D,2[AFD]|
%
[V:1] "G"GDG "C"EFG | "Am"AcB ABc | "G"dgd "Am"ecA | "D"AGF "G"G2 :|
[V:2] G,,2[GDB]C,2[CGE]|A,,2[AEC]E,2[AEC]|G,,2[GDB]A,,2[AEC]|D,2[AFD][G,2D2B2]:|
%
[V:1] e|"G"gfg "Em"edB | "G"BAB GAB | "G"gfg "C"efg | "Am"ea^g "D"a2 a |
[V:2] z|G,,2[GDB]E,2[EBG]|G,,2[GBD]D,2[GBD]|G,,2[GDB]C,2[CGE]|A,,2[AEC]D,2[AFD]|
%
[V:1] "G"bag "D7"agf | "C"gfg "Em"edB | "G"GBd "Am"cBA |"D"AGF "G"G2 :|
[V:2] G,,2[GDB]D,2[DAFc]|C,2[CGE]E,2[EBG]|G,,2[GDB]A,,2[AEC]|D,2[AFD][G,2D2B2]:|
%%%%%%%tune repeat
[V:1] D |"G"GDG "C"EFG | "Am"AcB ABc | "G"d2B "Am"cBA | "G"GAG "D"FED |
[V:2] z|G,,2[GDB]C,2[CGE]|A,,2[AEC]E,2[AEC]|G,,2[GDB]A,,2[AEC]|G,,2[GDB]D,2[AFD]|
%
[V:1] "G"GDG "C"EFG | "Am"AcB ABc | "G"dgd "Am"ecA | "D"AGF "G"G2 :|
[V:2] G,,2[GDB]C,2[CGE]|A,,2[AEC]E,2[AEC]|G,,2[GDB]A,,2[AEC]|D,2[AFD][G,2D2B2]:|
%
[V:1] e |"G"gfg "Em"edB | "G"BAB GAB | "G"gfg "C"efg | "Am"ea^g "D"a2 a |
[V:2] z |G,,2[GDB]E,2[EBG]|G,,2[GBD]D,2[GBD]|G,,2[GDB]C,2[CGE]|A,,2[AEC]D,2[AFD]|
%
[V:1] "G"bag "D7"agf | "C"gfg "Em"edB | "G"GBd "Am"cBA |1 "D"AGF "G"G2 :|2\
"D"AGF "G"G3-|G3 z3||
[V:2] G,,2[GDB]D,2[DAFc]|C,2[CGE]E,2[EBG]|G,,2[GDB]A,,2[AEC]|1 D,2[AFD][G,2D2B2]:|2\
 D,2[AFD][G,,3-D3-B,3-]|[G,,3D3B,3] z3||

%%%%%%%%%%%%%%%%%%%%%%%%%%%%%%%%%%%%%%%%%%%

